SVG/image.svg

<?xml version="1.0" encoding="utf-8"?>
<!-- Generated by IcoMoon.io -->
<!DOCTYPE svg PUBLIC "-//W3C//DTD SVG 1.1//EN" "http://www.w3.org/Graphics/SVG/1.1/DTD/svg11.dtd">
<svg version="1.1" xmlns="http://www.w3.org/2000/svg" xmlns:xlink="http://www.w3.org/1999/xlink" width="15" height="14" viewBox="0 0 15 14">
<path fill="#444444" d="M5 4.5q0 0.625-0.438 1.062t-1.062 0.438-1.062-0.438-0.438-1.062 0.438-1.062 1.062-0.438 1.062 0.438 0.438 1.062zM13 7.5v3.5h-11v-1.5l2.5-2.5 1.25 1.25 4-4zM13.75 2h-12.5q-0.102 0-0.176 0.074t-0.074 0.176v9.5q0 0.102 0.074 0.176t0.176 0.074h12.5q0.102 0 0.176-0.074t0.074-0.176v-9.5q0-0.102-0.074-0.176t-0.176-0.074zM15 2.25v9.5q0 0.516-0.367 0.883t-0.883 0.367h-12.5q-0.516 0-0.883-0.367t-0.367-0.883v-9.5q0-0.516 0.367-0.883t0.883-0.367h12.5q0.516 0 0.883 0.367t0.367 0.883z"></path>
</svg>

<svg xmlns="http://www.w3.org/2000/svg" viewBox="0 0 15 14"><path d="M5 4.5q0 .625-.438 1.062T3.5 6t-1.062-.438T2 4.5t.438-1.062T3.5 3t1.062.438T5 4.5zm8 3V11H2V9.5L4.5 7l1.25 1.25 4-4zm.75-5.5H1.25q-.102 0-.176.074T1 2.25v9.5q0 .102.074.176T1.25 12h12.5q.102 0 .176-.074T14 11.75v-9.5q0-.102-.074-.176T13.75 2zm1.25.25v9.5q0 .516-.367.883T13.75 13H1.25q-.516 0-.883-.367T0 11.75v-9.5q0-.516.367-.883T1.25 1h12.5q.516 0 .883.367T15 2.25z" /></svg>
